svg/palette_swatch_variant.svg

<svg xmlns="http://www.w3.org/2000/svg" viewBox="0 0 24 24"><path d="M20 14H6c-2.2 0-4 1.8-4 4s1.8 4 4 4h14c1.1 0 2-.9 2-2v-4c0-1.1-.9-2-2-2M6 20c-1.1 0-2-.9-2-2s.9-2 2-2 2 .9 2 2-.9 2-2 2m.3-8L13 5.3c.8-.8 2-.8 2.8 0l2.8 2.8c.8.8.8 2 0 2.8l-.9 1.1zM2 13.5V4c0-1.1.9-2 2-2h4c1.1 0 2 .9 2 2v1.5z"/></svg>

<svg xmlns="http://www.w3.org/2000/svg" id="mdi-palette-swatch-variant" viewBox="0 0 24 24"><path d="M20 14H6C3.8 14 2 15.8 2 18S3.8 22 6 22H20C21.1 22 22 21.1 22 20V16C22 14.9 21.1 14 20 14M6 20C4.9 20 4 19.1 4 18S4.9 16 6 16 8 16.9 8 18 7.1 20 6 20M6.3 12L13 5.3C13.8 4.5 15 4.5 15.8 5.3L18.6 8.1C19.4 8.9 19.4 10.1 18.6 10.9L17.7 12H6.3M2 13.5V4C2 2.9 2.9 2 4 2H8C9.1 2 10 2.9 10 4V5.5L2 13.5Z" /></svg>
